; generated by Slic3r Prusa Edition 1.41.3+ on 2019-02-26 at 21:37:32

; 

; external perimeters extrusion width = 0.45mm
; perimeters extrusion width = 0.45mm
; infill extrusion width = 0.45mm
; solid infill extrusion width = 0.45mm
; top infill extrusion width = 0.40mm
; first layer extrusion width = 0.42mm

M73 P0 R39
M73 Q0 S39
M201 X1000 Y1000 Z1000 E5000 ; sets maximum accelerations, mm/sec^2
M203 X200 Y200 Z12 E120 ; sets maximum feedrates, mm/sec
M204 P1250 R1250 T1250 ; sets acceleration (P, T) and retract acceleration (R), mm/sec^2
M205 X8.00 Y8.00 Z0.40 E1.50 ; sets the jerk limits, mm/sec
M205 S0 T0 ; sets the minimum extruding and travel feed rate, mm/sec
M107
M115 U3.5.1 ; tell printer latest fw version
M83  ; extruder relative mode
M104 S215 ; set extruder temp
M140 S60 ; set bed temp
M190 S60 ; wait for bed temp
M109 S215 ; wait for extruder temp
G28 W ; home all without mesh bed level
G80 ; mesh bed leveling
G1 Y-3.0 F1000.0 ; go outside print area
G92 E0.0
G1 X60.0 E9.0  F1000.0 ; intro line
M73 Q0 S39
M73 P0 R39
G1 X100.0 E12.5  F1000.0 ; intro line
G92 E0.0
M221 S95
M900 K30; Filament gcode
G21 ; set units to millimeters
G90 ; use absolute coordinates
M83 ; use relative distances for extrusion
;BEFORE_LAYER_CHANGE
G92 E0.0
;0.2


G1 E-0.80000 F2100.00000
G1 Z0.600 F10800.000
;AFTER_LAYER_CHANGE
;0.2
G1 X94.395 Y85.397
G1 Z0.200
G1 E0.80000 F2100.00000
M204 S1000
G1 F1200
G1 X94.987 Y85.312 E0.01873
G1 X155.004 Y85.311 E1.88179
G1 X155.823 Y85.472 E0.02620
G1 X156.526 Y85.931 E0.02631
G1 X157.003 Y86.617 E0.02620
G1 X157.188 Y87.436 E0.02631
G1 X157.188 Y122.562 E1.10137
G1 X157.107 Y123.092 E0.01680
G1 X156.898 Y123.589 E0.01692
G1 X156.574 Y124.021 E0.01692
G1 X156.154 Y124.360 E0.01692
G1 X155.605 Y124.603 E0.01885
G1 X155.013 Y124.688 E0.01873
G1 X94.974 Y124.688 E1.88247
G1 X94.433 Y124.614 E0.01714
G1 X93.926 Y124.407 E0.01714
G1 X93.487 Y124.082 E0.01714
G1 X93.140 Y123.654 E0.01726
G1 X92.899 Y123.112 E0.01862
G1 X92.812 Y122.520 E0.01873
G1 X92.812 Y87.460 E1.09930
G1 X92.889 Y86.922 E0.01703
G1 X93.096 Y86.420 E0.01703
G1 X93.421 Y85.985 E0.01703
G1 X93.846 Y85.640 E0.01714
G1 X94.341 Y85.421 E0.01697
; PURGING FINISHED
G1 F8640
G1 X94.987 Y85.312 E-0.15135
G1 X97.623 Y85.311 E-0.60865
G1 E-0.04000 F2100.00000
G1 Z0.800 F10800.000
G1 X100.413 Y107.913
G1 Z0.200
G1 E0.80000 F2100.00000
G1 F1200
G1 X111.587 Y107.913 E0.35036
G1 X111.587 Y116.087 E0.25629
G1 X100.413 Y116.087 E0.35036
G1 X100.413 Y107.973 E0.25441
G1 X100.790 Y108.290 F10800.000
G1 F1200
G1 X111.210 Y108.290 E0.32671
G1 X111.210 Y115.710 E0.23265
G1 X100.790 Y115.710 E0.32671
G1 X100.790 Y108.350 E0.23077
G1 X100.665 Y107.910 F10800.000
G1 F8640
G1 X104.081 Y108.331 E-0.76000
G1 E-0.04000 F2100.00000
G1 Z0.800 F10800.000
G1 X122.422 Y95.568
G1 Z0.200
G1 E0.80000 F2100.00000
G1 F1200
G1 X122.209 Y94.500 E0.03414
G1 X122.422 Y93.432 E0.03414
G1 X123.027 Y92.527 E0.03414
G1 X123.932 Y91.922 E0.03414
G1 X125.000 Y91.709 E0.03414
G1 X126.068 Y91.922 E0.03414
G1 X126.973 Y92.527 E0.03414
G1 X127.578 Y93.432 E0.03414
G1 X127.791 Y94.500 E0.03414
G1 X127.578 Y95.568 E0.03414
G1 X126.973 Y96.473 E0.03414
G1 X126.068 Y97.078 E0.03414
G1 X125.000 Y97.291 E0.03414
G1 X123.932 Y97.078 E0.03414
G1 X123.027 Y96.473 E0.03414
G1 X122.455 Y95.618 E0.03226
G1 X122.777 Y95.421 F10800.000
G1 F1200
G1 X122.594 Y94.500 E0.02944
G1 X122.777 Y93.579 E0.02944
G1 X123.299 Y92.799 E0.02944
G1 X124.079 Y92.277 E0.02944
G1 X125.000 Y92.094 E0.02944
G1 X125.921 Y92.277 E0.02944
G1 X126.701 Y92.799 E0.02944
G1 X127.223 Y93.579 E0.02944
G1 X127.406 Y94.500 E0.02944
G1 X127.223 Y95.421 E0.02944
G1 X126.701 Y96.201 E0.02944
G1 X125.921 Y96.723 E0.02944
G1 X125.000 Y96.906 E0.02944
G1 X124.079 Y96.723 E0.02944
G1 X123.299 Y96.201 E0.02944
G1 X122.810 Y95.471 E0.02755
G1 X122.380 Y95.369 F10800.000
G1 F8640
G1 X122.594 Y94.500 E-0.22964
G1 X122.777 Y93.579 E-0.21678
G1 X123.299 Y92.799 E-0.21678
G1 X123.647 Y92.566 E-0.09681
G1 E-0.04000 F2100.00000
G1 Z0.800 F10800.000
G1 X137.163 Y107.913
G1 Z0.200
G1 E0.80000 F2100.00000
G1 F1200
G1 X148.337 Y107.913 E0.35036
G1 X148.337 Y116.087 E0.25629
G1 X137.163 Y116.087 E0.35036
G1 X137.163 Y107.973 E0.25441
G1 X137.540 Y108.290 F10800.000
G1 F1200
G1 X147.960 Y108.290 E0.32671
G1 X147.960 Y115.710 E0.23265
G1 X137.540 Y115.710 E0.32671
G1 X137.540 Y108.350 E0.23077
G1 X137.415 Y107.910 F10800.000
G1 F8640
G1 X140.831 Y108.331 E-0.76000
G1 E-0.04000 F2100.00000
G1 Z0.800 F10800.000
G1 X154.413 Y121.913
G1 Z0.200
G1 E0.80000 F2100.00000
G1 F1200
G1 X95.587 Y121.913 E1.84444
G1 X95.587 Y88.087 E1.06059
G1 X154.413 Y88.087 E1.84444
G1 X154.413 Y121.853 E1.05870
G1 X154.790 Y122.290 F10800.000
G1 F1200
G1 X95.210 Y122.290 E1.86809
G1 X95.210 Y87.710 E1.08423
G1 X154.790 Y87.710 E1.86809
G1 X154.790 Y122.230 E1.08235
G1 X154.396 Y122.220 F10800.000
G1 F8640
G1 X151.499 Y122.233 E-0.76000
G1 E-0.04000 F2100.00000
G1 Z0.800 F10800.000
G1 X154.300 Y114.031
G1 Z0.200
G1 E0.80000 F2100.00000
G1 F1200
G1 X148.620 Y108.351 E0.25191
G1 X148.620 Y108.885 E0.01673
G1 X154.130 Y114.395 E0.24438
G1 X154.130 Y114.929 E0.01673
G1 X148.620 Y109.418 E0.24438
G1 X148.620 Y109.952 E0.01673
G1 X154.130 Y115.462 E0.24438
G1 X154.130 Y115.995 E0.01673
G1 X148.620 Y110.485 E0.24438
G1 X148.620 Y111.018 E0.01673
G1 X154.130 Y116.529 E0.24438
G1 X154.130 Y117.062 E0.01673
G1 X148.620 Y111.552 E0.24438
G1 X148.620 Y112.085 E0.01673
G1 X154.130 Y117.595 E0.24438
G1 X154.130 Y118.129 E0.01673
G1 X148.620 Y112.619 E0.24438
G1 X148.620 Y113.152 E0.01673
G1 X154.130 Y118.662 E0.24438
G1 X154.130 Y119.196 E0.01673
G1 X148.620 Y113.685 E0.24438
G1 X148.620 Y114.219 E0.01673
G1 X154.130 Y119.729 E0.24438
G1 X154.130 Y120.262 E0.01673
G1 X148.620 Y114.752 E0.24438
G1 X148.620 Y115.285 E0.01673
G1 X154.130 Y120.796 E0.24438
G1 X154.130 Y121.329 E0.01673
G1 X148.620 Y115.819 E0.24438
G1 X148.620 Y116.352 E0.01673
G1 X153.898 Y121.630 E0.23408
G1 X153.364 Y121.630 E0.01673
G1 X148.104 Y116.370 E0.23330
G1 X147.571 Y116.370 E0.01673
G1 X152.831 Y121.630 E0.23330
G1 X152.298 Y121.630 E0.01673
G1 X147.037 Y116.370 E0.23330
G1 X146.504 Y116.370 E0.01673
G1 X151.764 Y121.630 E0.23330
G1 X151.231 Y121.630 E0.01673
G1 X145.971 Y116.370 E0.23330
G1 X145.437 Y116.370 E0.01673
G1 X150.698 Y121.630 E0.23330
G1 X150.164 Y121.630 E0.01673
G1 X144.904 Y116.370 E0.23330
G1 X144.371 Y116.370 E0.01673
G1 X149.631 Y121.630 E0.23330
G1 X149.097 Y121.630 E0.01673
G1 X143.837 Y116.370 E0.23330
G1 X143.304 Y116.370 E0.01673
G1 X148.564 Y121.630 E0.23330
G1 X148.031 Y121.630 E0.01673
G1 X142.770 Y116.370 E0.23330
G1 X142.237 Y116.370 E0.01673
G1 X147.497 Y121.630 E0.23330
G1 X146.964 Y121.630 E0.01673
G1 X141.704 Y116.370 E0.23330
G1 X141.170 Y116.370 E0.01673
G1 X146.431 Y121.630 E0.23330
G1 X145.897 Y121.630 E0.01673
G1 X140.637 Y116.370 E0.23330
G1 X140.103 Y116.370 E0.01673
G1 X145.364 Y121.630 E0.23330
G1 X144.830 Y121.630 E0.01673
G1 X139.570 Y116.370 E0.23330
G1 X139.037 Y116.370 E0.01673
G1 X144.297 Y121.630 E0.23330
G1 X143.764 Y121.630 E0.01673
G1 X138.503 Y116.370 E0.23330
G1 X137.970 Y116.370 E0.01673
G1 X143.230 Y121.630 E0.23330
G1 X142.697 Y121.630 E0.01673
G1 X137.267 Y116.200 E0.24082
M73 Q2 S38
G1 F8640
G1 X139.594 Y118.528 E-0.76000
G1 E-0.04000 F2100.00000
G1 Z0.800 F10800.000
G1 X137.050 Y111.716
G1 Z0.200
G1 E0.80000 F2100.00000
M73 P2 R38
G1 F1200
G1 X113.704 Y88.370 E1.03542
G1 X113.170 Y88.370 E0.01673
G1 X136.880 Y112.080 E1.05155
G1 X136.880 Y112.613 E0.01673
G1 X112.637 Y88.370 E1.07520
G1 X112.103 Y88.370 E0.01673
G1 X136.880 Y113.147 E1.09886
G1 X136.880 Y113.680 E0.01673
G1 X111.570 Y88.370 E1.12252
G1 X111.037 Y88.370 E0.01673
G1 X136.880 Y114.213 E1.14617
G1 X136.880 Y114.747 E0.01673
G1 X110.503 Y88.370 E1.16983
G1 X109.970 Y88.370 E0.01673
G1 X136.880 Y115.280 E1.19348
G1 X136.880 Y115.813 E0.01673
G1 X109.437 Y88.370 E1.21714
G1 X108.903 Y88.370 E0.01673
G1 X142.163 Y121.630 E1.47511
G1 X141.630 Y121.630 E0.01673
G1 X108.370 Y88.370 E1.47511
G1 X107.836 Y88.370 E0.01673
G1 X141.097 Y121.630 E1.47511
G1 X140.563 Y121.630 E0.01673
G1 X107.303 Y88.370 E1.47511
G1 X106.770 Y88.370 E0.01673
G1 X140.030 Y121.630 E1.47511
G1 X139.497 Y121.630 E0.01673
G1 X106.236 Y88.370 E1.47511
G1 X105.703 Y88.370 E0.01673
G1 X138.963 Y121.630 E1.47511
G1 X138.430 Y121.630 E0.01673
G1 X105.170 Y88.370 E1.47511
G1 X104.636 Y88.370 E0.01673
G1 X137.896 Y121.630 E1.47511
G1 X137.363 Y121.630 E0.01673
G1 X104.103 Y88.370 E1.47511
G1 X103.569 Y88.370 E0.01673
G1 X136.830 Y121.630 E1.47511
G1 X136.296 Y121.630 E0.01673
G1 X103.036 Y88.370 E1.47511
G1 X102.503 Y88.370 E0.01673
G1 X135.763 Y121.630 E1.47511
G1 X135.230 Y121.630 E0.01673
G1 X101.969 Y88.370 E1.47511
G1 X101.436 Y88.370 E0.01673
G1 X134.696 Y121.630 E1.47511
G1 X134.163 Y121.630 E0.01673
G1 X100.903 Y88.370 E1.47511
G1 X100.369 Y88.370 E0.01673
G1 X133.629 Y121.630 E1.47511
G1 X133.096 Y121.630 E0.01673
G1 X99.836 Y88.370 E1.47511
G1 X99.302 Y88.370 E0.01673
G1 X132.563 Y121.630 E1.47511
M73 Q5 S37
M73 P5 R37
G1 X132.029 Y121.630 E0.01673
G1 X98.769 Y88.370 E1.47511
G1 X98.236 Y88.370 E0.01673
G1 X131.496 Y121.630 E1.47511
G1 X130.963 Y121.630 E0.01673
G1 X97.702 Y88.370 E1.47511
G1 X97.169 Y88.370 E0.01673
G1 X130.429 Y121.630 E1.47511
G1 X129.896 Y121.630 E0.01673
G1 X96.636 Y88.370 E1.47511
G1 X96.102 Y88.370 E0.01673
G1 X129.362 Y121.630 E1.47511
G1 X128.829 Y121.630 E0.01673
G1 X95.870 Y88.671 E1.46176
G1 X95.870 Y89.204 E0.01673
G1 X128.296 Y121.630 E1.43810
G1 X127.762 Y121.630 E0.01673
G1 X95.870 Y89.738 E1.41445
G1 X95.870 Y90.271 E0.01673
G1 X127.229 Y121.630 E1.39079
G1 X126.695 Y121.630 E0.01673
G1 X95.870 Y90.805 E1.36714
G1 X95.870 Y91.338 E0.01673
G1 X126.162 Y121.630 E1.34348
G1 X125.629 Y121.630 E0.01673
G1 X95.870 Y91.871 E1.31983
G1 X95.870 Y92.405 E0.01673
G1 X111.095 Y107.630 E0.67526
G1 X110.562 Y107.630 E0.01673
G1 X95.870 Y92.938 E0.65161
G1 X95.870 Y93.471 E0.01673
G1 X110.029 Y107.630 E0.62795
G1 X109.495 Y107.630 E0.01673
G1 X95.870 Y94.005 E0.60429
G1 X95.870 Y94.538 E0.01673
G1 X108.962 Y107.630 E0.58064
G1 X108.428 Y107.630 E0.01673
G1 X95.870 Y95.072 E0.55698
G1 X95.870 Y95.605 E0.01673
G1 X107.895 Y107.630 E0.53333
G1 X107.362 Y107.630 E0.01673
G1 X95.870 Y96.138 E0.50967
G1 X95.870 Y96.672 E0.01673
G1 X106.828 Y107.630 E0.48602
G1 X106.295 Y107.630 E0.01673
G1 X95.870 Y97.205 E0.46236
G1 X95.870 Y97.738 E0.01673
G1 X105.762 Y107.630 E0.43870
G1 X105.228 Y107.630 E0.01673
G1 X95.870 Y98.272 E0.41505
G1 X95.870 Y98.805 E0.01673
G1 X104.695 Y107.630 E0.39139
G1 X104.161 Y107.630 E0.01673
G1 X95.870 Y99.339 E0.36774
G1 X95.870 Y99.872 E0.01673
G1 X103.628 Y107.630 E0.34408
G1 X103.095 Y107.630 E0.01673
G1 X95.870 Y100.405 E0.32043
G1 X95.870 Y100.939 E0.01673
G1 X102.561 Y107.630 E0.29677
G1 X102.028 Y107.630 E0.01673
G1 X95.870 Y101.472 E0.27311
G1 X95.870 Y102.005 E0.01673
G1 X101.495 Y107.630 E0.24946
G1 X100.961 Y107.630 E0.01673
G1 X95.870 Y102.539 E0.22580
G1 X95.870 Y103.072 E0.01673
G1 X100.428 Y107.630 E0.20215
G1 X100.130 Y107.630 E0.00933
G1 X100.130 Y107.866 E0.00739
G1 X95.870 Y103.606 E0.18895
G1 X95.870 Y104.139 E0.01673
G1 X100.130 Y108.399 E0.18895
G1 X100.130 Y108.933 E0.01673
G1 X95.870 Y104.672 E0.18895
G1 X95.870 Y105.206 E0.01673
G1 X100.130 Y109.466 E0.18895
G1 X100.130 Y109.999 E0.01673
G1 X95.870 Y105.739 E0.18895
G1 X95.870 Y106.272 E0.01673
G1 X100.130 Y110.533 E0.18895
G1 X100.130 Y111.066 E0.01673
G1 X95.870 Y106.806 E0.18895
G1 X95.870 Y107.339 E0.01673
G1 X100.130 Y111.600 E0.18895
G1 X100.130 Y112.133 E0.01673
G1 X95.870 Y107.873 E0.18895
G1 X95.870 Y108.406 E0.01673
G1 X100.130 Y112.666 E0.18895
G1 X100.130 Y113.200 E0.01673
G1 X95.870 Y108.939 E0.18895
G1 X95.870 Y109.473 E0.01673
G1 X100.130 Y113.733 E0.18895
G1 X100.130 Y114.266 E0.01673
G1 X95.870 Y110.006 E0.18895
G1 X95.870 Y110.540 E0.01673
G1 X100.130 Y114.800 E0.18895
G1 X100.130 Y115.333 E0.01673
G1 X95.870 Y111.073 E0.18895
G1 X95.870 Y111.606 E0.01673
G1 X100.130 Y115.867 E0.18895
G1 X100.130 Y116.370 E0.01578
G1 X100.633 Y116.370 E0.01578
G1 X105.894 Y121.630 E0.23330
G1 X106.427 Y121.630 E0.01673
G1 X101.167 Y116.370 E0.23330
G1 X101.700 Y116.370 E0.01673
G1 X106.960 Y121.630 E0.23330
G1 X107.494 Y121.630 E0.01673
G1 X102.234 Y116.370 E0.23330
G1 X102.767 Y116.370 E0.01673
G1 X108.027 Y121.630 E0.23330
G1 X108.561 Y121.630 E0.01673
G1 X103.300 Y116.370 E0.23330
G1 X103.834 Y116.370 E0.01673
G1 X109.094 Y121.630 E0.23330
G1 X109.627 Y121.630 E0.01673
G1 X104.367 Y116.370 E0.23330
G1 X104.900 Y116.370 E0.01673
G1 X110.161 Y121.630 E0.23330
G1 X110.694 Y121.630 E0.01673
G1 X105.434 Y116.370 E0.23330
G1 X105.967 Y116.370 E0.01673
G1 X111.228 Y121.630 E0.23330
G1 X111.761 Y121.630 E0.01673
G1 X106.501 Y116.370 E0.23330
G1 X107.034 Y116.370 E0.01673
G1 X112.294 Y121.630 E0.23330
G1 X112.828 Y121.630 E0.01673
G1 X107.567 Y116.370 E0.23330
G1 X108.101 Y116.370 E0.01673
G1 X113.361 Y121.630 E0.23330
G1 X113.894 Y121.630 E0.01673
G1 X108.634 Y116.370 E0.23330
G1 X109.168 Y116.370 E0.01673
G1 X114.428 Y121.630 E0.23330
G1 X114.961 Y121.630 E0.01673
G1 X109.701 Y116.370 E0.23330
G1 X110.234 Y116.370 E0.01673
G1 X115.495 Y121.630 E0.23330
G1 X116.028 Y121.630 E0.01673
G1 X110.768 Y116.370 E0.23330
G1 X111.301 Y116.370 E0.01673
G1 X116.561 Y121.630 E0.23330
G1 X117.095 Y121.630 E0.01673
G1 X111.834 Y116.370 E0.23330
M73 Q7 S36
M73 P7 R36
G1 X111.870 Y116.370 E0.00111
G1 X111.870 Y115.872 E0.01562
G1 X117.628 Y121.630 E0.25538
G1 X118.161 Y121.630 E0.01673
G1 X111.870 Y115.339 E0.27904
G1 X111.870 Y114.805 E0.01673
G1 X118.695 Y121.630 E0.30269
G1 X119.228 Y121.630 E0.01673
G1 X111.870 Y114.272 E0.32635
G1 X111.870 Y113.738 E0.01673
G1 X119.762 Y121.630 E0.35000
G1 X120.295 Y121.630 E0.01673
G1 X111.870 Y113.205 E0.37366
G1 X111.870 Y112.672 E0.01673
G1 X120.828 Y121.630 E0.39731
G1 X121.362 Y121.630 E0.01673
G1 X111.870 Y112.138 E0.42097
G1 X111.870 Y111.605 E0.01673
G1 X121.895 Y121.630 E0.44463
G1 X122.428 Y121.630 E0.01673
G1 X111.870 Y111.072 E0.46828
G1 X111.870 Y110.538 E0.01673
G1 X122.962 Y121.630 E0.49194
G1 X123.495 Y121.630 E0.01673
G1 X111.870 Y110.005 E0.51559
G1 X111.870 Y109.471 E0.01673
G1 X124.029 Y121.630 E0.53925
G1 X124.562 Y121.630 E0.01673
G1 X111.870 Y108.938 E0.56290
G1 X111.870 Y108.405 E0.01673
G1 X125.265 Y121.800 E0.59409
G1 F8640
G1 X122.938 Y119.472 E-0.76000
G1 E-0.04000 F2100.00000
G1 Z0.800 F10800.000
G1 X105.530 Y121.800
G1 Z0.200
G1 E0.80000 F2100.00000
G1 F1200
G1 X95.870 Y112.140 E0.42843
G1 X95.870 Y112.673 E0.01673
G1 X104.827 Y121.630 E0.39725
G1 X104.294 Y121.630 E0.01673
G1 X95.870 Y113.206 E0.37360
G1 X95.870 Y113.740 E0.01673
G1 X103.760 Y121.630 E0.34994
G1 X103.227 Y121.630 E0.01673
G1 X95.870 Y114.273 E0.32629
G1 X95.870 Y114.807 E0.01673
G1 X102.693 Y121.630 E0.30263
G1 X102.160 Y121.630 E0.01673
G1 X95.870 Y115.340 E0.27897
G1 X95.870 Y115.873 E0.01673
G1 X101.627 Y121.630 E0.25532
G1 X101.093 Y121.630 E0.01673
G1 X95.870 Y116.407 E0.23166
G1 X95.870 Y116.940 E0.01673
G1 X100.560 Y121.630 E0.20801
G1 X100.027 Y121.630 E0.01673
G1 X95.870 Y117.473 E0.18435
G1 X95.870 Y118.007 E0.01673
G1 X99.493 Y121.630 E0.16070
G1 X98.960 Y121.630 E0.01673
G1 X95.870 Y118.540 E0.13704
G1 X95.870 Y119.074 E0.01673
G1 X98.426 Y121.630 E0.11338
G1 X97.893 Y121.630 E0.01673
G1 X95.870 Y119.607 E0.08973
G1 X95.870 Y120.140 E0.01673
G1 X97.360 Y121.630 E0.06607
G1 X96.826 Y121.630 E0.01673
G1 X95.870 Y120.674 E0.04242
G1 X95.870 Y121.207 E0.01673
G1 X96.463 Y121.800 E0.02629
G1 F8640
G1 X95.870 Y121.207 E-0.19355
G1 X95.870 Y120.674 E-0.12316
G1 X96.826 Y121.630 E-0.31231
G1 X97.360 Y121.630 E-0.12316
G1 X97.336 Y121.606 E-0.00783
G1 E-0.04000 F2100.00000
G1 Z0.800 F10800.000
G1 X122.601 Y88.200
G1 Z0.200
G1 E0.80000 F2100.00000
G1 F1200
G1 X126.026 Y91.625 E0.15190
G1 X125.361 Y91.493 E0.02129
G1 X122.238 Y88.370 E0.13851
G1 X121.704 Y88.370 E0.01673
G1 X124.796 Y91.462 E0.13712
G1 X124.351 Y91.550 E0.01423
G1 X121.171 Y88.370 E0.14105
G1 X120.638 Y88.370 E0.01673
G1 X123.906 Y91.639 E0.14497
G1 X123.822 Y91.655 E0.00270
